public/images/icon-login.svg

<svg width="17" height="17" viewBox="0 0 17 17" fill="none" xmlns="http://www.w3.org/2000/svg">
<path d="M6.79995 7.64999C7.47625 7.64999 8.12486 7.38133 8.60307 6.90311C9.08129 6.42489 9.34995 5.77629 9.34995 5.09999C9.34995 4.42369 9.08129 3.77508 8.60307 3.29687C8.12486 2.81865 7.47625 2.54999 6.79995 2.54999C6.12365 2.54999 5.47505 2.81865 4.99683 3.29687C4.51861 3.77508 4.24995 4.42369 4.24995 5.09999C4.24995 5.77629 4.51861 6.42489 4.99683 6.90311C5.47505 7.38133 6.12365 7.64999 6.79995 7.64999V7.64999ZM6.79995 9.34999C8.15256 9.34999 9.44976 9.88731 10.4062 10.8437C11.3626 11.8002 11.9 13.0974 11.9 14.45H1.69995C1.69995 13.0974 2.23727 11.8002 3.19371 10.8437C4.15014 9.88731 5.44735 9.34999 6.79995 9.34999V9.34999ZM13.6 5.94999C13.6 5.72455 13.5104 5.50835 13.351 5.34895C13.1916 5.18954 12.9754 5.09999 12.75 5.09999C12.5245 5.09999 12.3083 5.18954 12.1489 5.34895C11.9895 5.50835 11.9 5.72455 11.9 5.94999V6.79999H11.05C10.8245 6.79999 10.6083 6.88954 10.4489 7.04895C10.2895 7.20835 10.2 7.42455 10.2 7.64999C10.2 7.87542 10.2895 8.09162 10.4489 8.25103C10.6083 8.41043 10.8245 8.49999 11.05 8.49999H11.9V9.34999C11.9 9.57542 11.9895 9.79162 12.1489 9.95103C12.3083 10.1104 12.5245 10.2 12.75 10.2C12.9754 10.2 13.1916 10.1104 13.351 9.95103C13.5104 9.79162 13.6 9.57542 13.6 9.34999V8.49999H14.45C14.6754 8.49999 14.8916 8.41043 15.051 8.25103C15.2104 8.09162 15.3 7.87542 15.3 7.64999C15.3 7.42455 15.2104 7.20835 15.051 7.04895C14.8916 6.88954 14.6754 6.79999 14.45 6.79999H13.6V5.94999Z" fill="#fff"/>
</svg>

<svg xmlns="http://www.w3.org/2000/svg" width="17" height="17" fill="none"><path fill="#fff" d="M6.8 7.65a2.55 2.55 0 1 0 0-5.1 2.55 2.55 0 0 0 0 5.1Zm0 1.7a5.1002 5.1002 0 0 1 5.1 5.1H1.7a5.1002 5.1002 0 0 1 5.1-5.1Zm6.8-3.4a.85.85 0 0 0-1.7 0v.85h-.85a.85.85 0 1 0 0 1.7h.85v.85a.85.85 0 1 0 1.7 0V8.5h.85a.85.85 0 0 0 0-1.7h-.85v-.85Z"/></svg>
